;generated by ffslicer 1.30.3 06/24/24 16:59:27
;right_extruder_material: PLA
;layer_height: 0.2
;perimeter_shells: 1
;top_solid_layers: 4
;bottom_solid_layers: 3
;fill_density: 7%
;fill_pattern: 3dInfill
;base_print_speed: 130
;travel_speed: 120
;right_extruder_temperature: 195
;left_extruder_temperature: 0
;platform_temperature: 60
;right_extruder_temperature_raft0: 0
;left_extruder_temperature_raft0: 0
;right_extruder_temperature_reset: 
;left_extruder_temperature_reset: 
;start gcode
M140 S60 T0
M104 S195 T0
M104 S0 T1
G90
G28
G1 Z50.000 F420
G161 X Y F3300
M190 S60 T0
M109 S195 T0
M109 S0 T1
G92 E.0000
;layer_count: 525
M108 T0
G1 X41.50 Y156.50 F7200
;preExtrude:0.20
;preExtruder0
M106 S179
G1 Z.200 F420
G1 X41.50 Y156.50 F7200
G1 X14.50 Y156.50 E3.5921 F1200
G1 X14.50 Y63.50 E15.9649
;raft
;layer:0.30
;shell
G1 E10.9649 F2400
G1 Z.300 F420
G1 X22.70 Y71.70 F3000
G1 E15.9649 F2400
G1 X22.70 Y71.70 F3000
G1 X32.70 Y71.70 E16.4638 F1200
G1 X42.70 Y71.70 E16.9627
G1 X52.70 Y71.70 E17.4616
G1 X62.70 Y71.70 E17.9605
G1 X72.70 Y71.70 E18.4594
G1 X197.30 Y71.70 E24.6757
G1 X197.30 Y148.30 E28.4973
G1 X22.70 Y148.30 E37.2081
G1 X22.70 Y71.70 E41.0297
;infill
G1 E36.0297 F2400
G1 X22.98 Y148.01 F3000
G1 E41.0297 F2400
G1 X22.98 Y148.01 F3000
G1 X23.55 Y148.02 E41.0581 F1200
G1 X22.98 Y147.45 E41.0984
G1 X22.98 Y146.88 E41.1268
G1 X24.12 Y148.02 E41.2072
G1 X24.68 Y148.02 E41.2352
G1 X22.98 Y146.31 E41.3555
G1 X22.98 Y145.75 E41.3834
G1 X25.25 Y148.02 E41.5436
G1 X25.82 Y148.02 E41.5720
G1 X22.98 Y145.18 E41.7724
G1 X22.98 Y144.62 E41.8003
G1 X26.38 Y148.02 E42.0402
G1 X26.95 Y148.02 E42.0686
G1 X22.98 Y144.05 E42.3488
G1 X22.98 Y143.49 E42.3767
G1 X27.51 Y148.02 E42.6963
G1 X28.08 Y148.02 E42.7247
G1 X22.98 Y142.92 E43.0846
G1 X22.98 Y142.35 E43.1130
G1 X28.64 Y148.02 E43.5127
G1 X29.21 Y148.02 E43.5411
G1 X22.98 Y141.79 E43.9807
G1 X22.98 Y141.22 E44.0091
G1 X29.78 Y148.02 E44.4889
G1 X30.34 Y148.02 E44.5169
G1 X22.98 Y140.66 E45.0361
G1 X22.98 Y140.09 E45.0646
G1 X30.91 Y148.02 E45.6241
G1 X31.47 Y148.02 E45.6520
G1 X22.98 Y139.53 E46.2510
G1 X22.98 Y138.96 E46.2795
G1 X32.04 Y148.02 E46.9187
G1 X32.60 Y148.02 E46.9466
G1 X22.98 Y138.39 E47.6257
G1 X22.98 Y137.83 E47.6537
G1 X33.17 Y148.02 E48.3726
G1 X33.74 Y148.02 E48.4011
G1 X22.98 Y137.26 E49.1603
G1 X22.98 Y136.70 E49.1882
G1 X34.30 Y148.02 E49.9869
G1 X34.87 Y148.02 E50.0153
G1 X22.98 Y136.13 E50.8542
G1 X22.98 Y135.57 E50.8822
G1 X35.43 Y148.02 E51.7606
G1 X36.00 Y148.02 E51.7890
G1 X22.98 Y135.00 E52.7076
G1 X22.98 Y134.44 E52.7356
G1 X36.56 Y148.02 E53.6937
G1 X37.13 Y148.02 E53.7222
G1 X22.98 Y133.87 E54.7205
G1 X22.98 Y133.30 E54.7490
G1 X37.70 Y148.02 E55.7875
G1 X38.26 Y148.02 E55.8155
G1 X22.98 Y132.74 E56.8936
G1 X22.98 Y132.17 E56.9220
G1 X38.83 Y148.02 E58.0403
G1 X39.39 Y148.02 E58.0682
G1 X22.98 Y131.61 E59.2260
G1 X22.98 Y131.04 E59.2545
G1 X39.96 Y148.02 E60.4525
G1 X40.52 Y148.02 E60.4805
G1 X22.98 Y130.48 E61.7180
G1 X22.98 Y129.91 E61.7464
G1 X41.09 Y148.02 E63.0242
G1 X41.65 Y148.02 E63.0521
G1 X22.98 Y129.34 E64.3697
G1 X22.98 Y128.78 E64.3977
G1 X42.22 Y148.02 E65.7552
G1 X42.79 Y148.02 E65.7836
G1 X22.98 Y128.21 E67.1813
G1 X22.98 Y127.65 E67.2093
G1 X43.35 Y148.02 E68.6465
G1 X43.92 Y148.02 E68.6749
G1 X22.98 Y127.08 E70.1523
G1 X22.98 Y126.52 E70.1803
G1 X44.48 Y148.02 E71.6972
G1 X45.05 Y148.02 E71.7256
G1 X22.98 Y125.95 E73.2828
G1 X22.98 Y125.38 E73.3112
G1 X45.61 Y148.02 E74.9083
G1 X46.18 Y148.02 E74.9367
G1 X22.98 Y124.82 E76.5736
G1 X22.98 Y124.25 E76.6020
G1 X46.75 Y148.02 E78.2791
G1 X47.31 Y148.02 E78.3071
G1 X22.98 Y123.69 E80.0237
G1 X22.98 Y123.12 E80.0521
G1 X47.88 Y148.02 E81.8089
G1 X48.44 Y148.02 E81.8369
G1 X22.98 Y122.56 E83.6332
G1 X22.98 Y121.99 E83.6617
G1 X49.01 Y148.02 E85.4982
G1 X49.57 Y148.02 E85.5261
G1 X22.98 Y121.42 E87.4026
G1 X22.98 Y120.86 E87.4305
G1 X50.14 Y148.02 E89.3468
G1 X50.71 Y148.02 E89.3752
G1 X22.98 Y120.29 E91.3317
G1 X22.98 Y119.73 E91.3597
G1 X51.27 Y148.02 E93.3557
G1 X51.84 Y148.02 E93.3841
G1 X22.98 Y119.16 E95.4203
G1 X22.98 Y118.60 E95.4483
G1 X52.40 Y148.02 E97.5240
G1 X52.97 Y148.02 E97.5525
G1 X22.98 Y118.03 E99.6684
G1 X22.98 Y117.46 E99.6968
G1 X53.53 Y148.02 E101.8527
G1 X54.10 Y148.02 E101.8811
G1 X22.98 Y116.90 E104.0768
G1 X22.98 Y116.33 E104.1052
G1 X54.67 Y148.02 E106.3411
G1 X55.23 Y148.02 E106.3691
G1 X22.98 Y115.77 E108.6445
G1 X22.98 Y115.20 E108.6729
G1 X55.80 Y148.02 E110.9885
G1 X56.36 Y148.02 E111.0165
G1 X22.98 Y114.64 E113.3716
G1 X22.98 Y114.07 E113.4001
G1 X56.93 Y148.02 E115.7954
G1 X57.49 Y148.02 E115.8234
G1 X22.98 Y113.50 E118.2586
G1 X22.98 Y112.94 E118.2865
G1 X58.06 Y148.02 E120.7616
G1 X58.63 Y148.02 E120.7900
G1 X22.98 Y112.37 E123.3053
G1 X22.98 Y111.81 E123.3333
G1 X59.19 Y148.02 E125.8881
G1 X59.76 Y148.02 E125.9165
G1 X22.98 Y111.24 E128.5116
G1 X22.98 Y110.68 E128.5395
G1 X60.32 Y148.02 E131.1740
G1 X60.89 Y148.02 E131.2025
G1 X22.98 Y110.11 E133.8772
G1 X22.98 Y109.54 E133.9056
G1 X61.45 Y148.02 E136.6203
G1 X62.02 Y148.02 E136.6487
G1 X22.98 Y108.98 E139.4032
G1 X22.98 Y108.41 E139.4316
G1 X62.59 Y148.02 E142.2263
G1 X63.15 Y148.02 E142.2543
G1 X22.98 Y107.85 E145.0885
G1 X22.98 Y107.28 E145.1169
G1 X63.72 Y148.02 E147.9913
G1 X64.28 Y148.02 E148.0193
G1 X22.98 Y106.72 E150.9332
G1 X22.98 Y106.15 E150.9616
G1 X64.85 Y148.02 E153.9158
G1 X65.41 Y148.02 E153.9437
G1 X22.98 Y105.59 E156.9374
G1 X22.98 Y105.02 E156.9659
G1 X65.98 Y148.02 E159.9997
G1 X66.55 Y148.02 E160.0282
G1 X22.98 Y104.45 E163.1023
G1 X22.98 Y103.89 E163.1302
G1 X67.11 Y148.02 E166.2438
G1 X67.68 Y148.02 E166.2722
G1 X22.98 Y103.32 E169.4261
G1 X22.98 Y102.76 E169.4540
G1 X68.24 Y148.02 E172.6473
G1 X68.81 Y148.02 E172.6758
G1 X22.98 Y102.19 E175.9093
G1 X22.98 Y101.63 E175.9373
G1 X69.37 Y148.02 E179.2103
G1 X69.94 Y148.02 E179.2388
G1 X22.98 Y101.06 E182.5521
G1 X22.98 Y100.49 E182.5805
G1 X70.50 Y148.02 E185.9336
G1 X71.07 Y148.02 E185.9621
G1 X22.98 Y99.93 E189.3551
G1 X22.98 Y99.36 E189.3835
G1 X71.64 Y148.02 E192.8167
G1 X72.20 Y148.02 E192.8447
G1 X22.98 Y98.80 E196.3174
G1 X22.98 Y98.23 E196.3458
G1 X72.77 Y148.02 E199.8588
G1 X73.33 Y148.02 E199.8867
G1 X22.98 Y97.67 E203.4392
G1 X22.98 Y97.10 E203.4676
G1 X73.90 Y148.02 E207.0603
G1 X74.46 Y148.02 E207.0883
G1 X22.98 Y96.53 E210.7208
G1 X22.98 Y95.97 E210.7488
G1 X75.03 Y148.02 E214.4212
G1 X75.60 Y148.02 E214.4496
G1 X22.98 Y95.40 E218.1622
G1 X22.98 Y94.84 E218.1902
G1 X76.16 Y148.02 E221.9423
G1 X76.73 Y148.02 E221.9707
G1 X22.98 Y94.27 E225.7631
G1 X22.98 Y93.71 E225.7910
G1 X77.29 Y148.02 E229.6229
G1 X77.86 Y148.02 E229.6513
G1 X22.98 Y93.14 E233.5234
G1 X22.98 Y92.57 E233.5519
G1 X78.42 Y148.02 E237.4638
G1 X78.99 Y148.02 E237.4922
G1 X22.98 Y92.01 E241.4440
G1 X22.98 Y91.44 E241.4725
G1 X79.56 Y148.02 E245.4645
G1 X80.12 Y148.02 E245.4924
G1 X22.98 Y90.88 E249.5240
G1 X22.98 Y90.31 E249.5524
G1 X80.69 Y148.02 E253.6242
G1 X81.25 Y148.02 E253.6521
G1 X22.98 Y89.75 E257.7634
G1 X22.98 Y89.18 E257.7918
G1 X81.82 Y148.02 E261.9433
G1 X82.38 Y148.02 E261.9712
G1 X22.98 Y88.61 E266.1626
G1 X22.98 Y88.05 E266.1905
G1 X82.95 Y148.02 E270.4217
G1 X83.52 Y148.02 E270.4502
G1 X22.98 Y87.48 E274.7216
G1 X22.98 Y86.92 E274.7496
G1 X84.08 Y148.02 E279.0605
G1 X84.65 Y148.02 E279.0889
G1 X22.98 Y86.35 E283.4401
G1 X22.98 Y85.79 E283.4680
G1 X85.21 Y148.02 E287.8587
G1 X85.78 Y148.02 E287.8871
G1 X22.98 Y85.22 E292.3180
G1 X22.98 Y84.65 E292.3464
G1 X86.34 Y148.02 E296.8172
G1 X86.91 Y148.02 E296.8456
G1 X22.98 Y84.09 E301.3562
G1 X22.98 Y83.52 E301.3846
G1 X87.48 Y148.02 E305.9354
G1 X88.04 Y148.02 E305.9634
G1 X22.98 Y82.96 E310.5537
G1 X22.98 Y82.39 E310.5822
G1 X88.61 Y148.02 E315.2127
G1 X89.17 Y148.02 E315.2407
G1 X22.98 Y81.83 E319.9107
G1 X22.98 Y81.26 E319.9392
G1 X89.74 Y148.02 E324.6495
G1 X90.30 Y148.02 E324.6774
G1 X22.98 Y80.70 E329.4272
G1 X22.98 Y80.13 E329.4556
G1 X90.87 Y148.02 E334.2456
G1 X91.44 Y148.02 E334.2740
G1 X22.98 Y79.56 E339.1043
G1 X22.98 Y79.00 E339.1322
G1 X92.00 Y148.02 E344.0019
G1 X92.57 Y148.02 E344.0303
G1 X22.98 Y78.43 E348.9403
G1 X22.98 Y77.87 E348.9682
G1 X93.13 Y148.02 E353.9177
G1 X93.70 Y148.02 E353.9461
G1 X22.98 Y77.30 E358.9358
G1 X22.98 Y76.74 E358.9638
G1 X94.26 Y148.02 E363.9930
G1 X94.83 Y148.02 E364.0214
G1 X22.98 Y76.17 E369.0908
G1 X22.98 Y75.60 E369.1192
G1 X95.40 Y148.02 E374.2289
G1 X95.96 Y148.02 E374.2568
G1 X22.98 Y75.04 E379.4059
G1 X22.98 Y74.47 E379.4344
G1 X96.53 Y148.02 E384.6237
G1 X97.09 Y148.02 E384.6516
G1 X22.98 Y73.91 E389.8805
G1 X22.98 Y73.34 E389.9089
G1 X97.66 Y148.02 E395.1780
G1 X98.22 Y148.02 E395.2059
G1 X22.98 Y72.78 E400.5145
G1 X22.98 Y72.21 E400.5430
G1 X98.79 Y148.02 E405.8918
G1 X99.35 Y148.02 E405.9197
G1 X23.31 Y71.98 E411.2848
G1 X23.88 Y71.98 E411.3132
G1 X99.92 Y148.02 E416.6782
G1 X100.49 Y148.02 E416.7067
G1 X24.45 Y71.98 E422.0717
G1 X25.01 Y71.98 E422.0997
G1 X101.05 Y148.02 E427.4647
G1 X101.62 Y148.02 E427.4931
G1 X25.58 Y71.98 E432.8581
G1 X26.14 Y71.98 E432.8861
G1 X102.18 Y148.02 E438.2511
G1 X102.75 Y148.02 E438.2796
G1 X26.71 Y71.98 E443.6446
G1 X27.27 Y71.98 E443.6725
G1 X103.31 Y148.02 E449.0376
G1 X103.88 Y148.02 E449.0660
G1 X27.84 Y71.98 E454.4310
G1 X28.41 Y71.98 E454.4595
G1 X104.45 Y148.02 E459.8245
G1 X105.01 Y148.02 E459.8524
G1 X28.97 Y71.98 E465.2175
G1 X29.54 Y71.98 E465.2459
G1 X105.58 Y148.02 E470.6109
G1 X106.14 Y148.02 E470.6389
G1 X30.10 Y71.98 E476.0039
G1 X30.67 Y71.98 E476.0323
G1 X106.71 Y148.02 E481.3974
G1 X107.27 Y148.02 E481.4253
G1 X31.23 Y71.98 E486.7903
G1 X31.80 Y71.98 E486.8188
G1 X107.84 Y148.02 E492.1838
G1 X108.41 Y148.02 E492.2122
G1 X32.37 Y71.98 E497.5773
G1 X32.93 Y71.98 E497.6052
G1 X108.97 Y148.02 E502.9702
G1 X109.54 Y148.02 E502.9987
G1 X33.50 Y71.98 E508.3637
G1 X34.06 Y71.98 E508.3917
G1 X110.10 Y148.02 E513.7567
G1 X110.67 Y148.02 E513.7851
G1 X34.63 Y71.98 E519.1502
G1 X35.19 Y71.98 E519.1781
G1 X111.23 Y148.02 E524.5432
G1 X111.80 Y148.02 E524.5716
G1 X35.76 Y71.98 E529.9367
G1 X36.33 Y71.98 E529.9651
G1 X112.37 Y148.02 E535.3302
G1 X112.93 Y148.02 E535.3581
G1 X36.89 Y71.98 E540.7232
G1 X37.46 Y71.98 E540.7516
G1 X113.50 Y148.02 E546.1167
G1 X114.06 Y148.02 E546.1446
G1 X38.02 Y71.98 E551.5097
G1 X38.59 Y71.98 E551.5381
G1 X114.63 Y148.02 E556.9032
G1 X115.19 Y148.02 E556.9311
G1 X39.15 Y71.98 E562.2962
G1 X39.72 Y71.98 E562.3246
G1 X115.76 Y148.02 E567.6897
G1 X116.33 Y148.02 E567.7181
G1 X40.29 Y71.98 E573.0832
G1 X40.85 Y71.98 E573.1111
G1 X116.89 Y148.02 E578.4762
G1 X117.46 Y148.02 E578.5046
G1 X41.42 Y71.98 E583.8697
G1 X41.98 Y71.98 E583.8976
G1 X118.02 Y148.02 E589.2627
G1 X118.59 Y148.02 E589.2911
G1 X42.55 Y71.98 E594.6562
G1 X43.11 Y71.98 E594.6841
G1 X119.15 Y148.02 E600.0492
G1 X119.72 Y148.02 E600.0776
G1 X43.68 Y71.98 E605.4427
G1 X44.25 Y71.98 E605.4711
G1 X120.29 Y148.02 E610.8361
G1 X120.85 Y148.02 E610.8641
G1 X44.81 Y71.98 E616.2292
G1 X45.38 Y71.98 E616.2576
G1 X121.42 Y148.02 E621.6226
G1 X121.98 Y148.02 E621.6506
G1 X45.94 Y71.98 E627.0156
G1 X46.51 Y71.98 E627.0441
G1 X122.55 Y148.02 E632.4091
G1 X123.11 Y148.02 E632.4371
G1 X47.07 Y71.98 E637.8021
G1 X47.64 Y71.98 E637.8306
G1 X123.68 Y148.02 E643.1956
G1 X124.25 Y148.02 E643.2241
G1 X48.20 Y71.98 E648.5894
G1 X48.77 Y71.98 E648.6179
G1 X124.81 Y148.02 E653.9829
G1 X125.38 Y148.02 E654.0114
G1 X49.34 Y71.98 E659.3765
G1 X49.90 Y71.98 E659.4044
G1 X125.94 Y148.02 E664.7694
G1 X126.51 Y148.02 E664.7979
G1 X50.47 Y71.98 E670.1630
G1 X51.03 Y71.98 E670.1909
G1 X127.07 Y148.02 E675.5559
G1 X127.64 Y148.02 E675.5844
G1 X51.60 Y71.98 E680.9495
G1 X52.16 Y71.98 E680.9774
G1 X128.20 Y148.02 E686.3424
G1 X128.77 Y148.02 E686.3709
G1 X52.73 Y71.98 E691.7360
G1 X53.30 Y71.98 E691.7644
G1 X129.34 Y148.02 E697.1295
G1 X129.90 Y148.02 E697.1574
G1 X53.86 Y71.98 E702.5225
G1 X54.43 Y71.98 E702.5509
G1 X130.47 Y148.02 E707.9160
G1 X131.03 Y148.02 E707.9439
G1 X54.99 Y71.98 E713.3090
G1 X55.56 Y71.98 E713.3374
G1 X131.60 Y148.02 E718.7025
G1 X132.16 Y148.02 E718.7304
G1 X56.12 Y71.98 E724.0955
G1 X56.69 Y71.98 E724.1239
G1 X132.73 Y148.02 E729.4890
G1 X133.30 Y148.02 E729.5174
G1 X57.26 Y71.98 E734.8825
G1 X57.82 Y71.98 E734.9104
G1 X133.86 Y148.02 E740.2755
G1 X134.43 Y148.02 E740.3039
G1 X58.39 Y71.98 E745.6690
G1 X58.95 Y71.98 E745.6969
G1 X134.99 Y148.02 E751.0620
G1 X135.56 Y148.02 E751.0904
G1 X59.52 Y71.98 E756.4555
G1 X60.08 Y71.98 E756.4834
G1 X136.12 Y148.02 E761.8485
G1 X136.69 Y148.02 E761.8769
G1 X60.65 Y71.98 E767.2420
G1 X61.22 Y71.98 E767.2704
G1 X137.26 Y148.02 E772.6355
G1 X137.82 Y148.02 E772.6634
G1 X61.78 Y71.98 E778.0285
G1 X62.35 Y71.98 E778.0569
G1 X138.39 Y148.02 E783.4220
G1 X138.95 Y148.02 E783.4499
G1 X62.91 Y71.98 E788.8150
G1 X63.48 Y71.98 E788.8434
G1 X139.52 Y148.02 E794.2085
G1 X140.08 Y148.02 E794.2364
G1 X64.04 Y71.98 E799.6015
G1 X64.61 Y71.98 E799.6299
G1 X140.65 Y148.02 E804.9950
G1 X141.22 Y148.02 E805.0234
G1 X65.18 Y71.98 E810.3885
G1 X65.74 Y71.98 E810.4164
G1 X141.78 Y148.02 E815.7815
G1 X142.35 Y148.02 E815.8099
G1 X66.31 Y71.98 E821.1750
G1 X66.87 Y71.98 E821.2029
G1 X142.91 Y148.02 E826.5680
G1 X143.48 Y148.02 E826.5964
G1 X67.44 Y71.98 E831.9615
G1 X68.00 Y71.98 E831.9894
G1 X144.04 Y148.02 E837.3545
G1 X144.61 Y148.02 E837.3829
G1 X68.57 Y71.98 E842.7479
G1 X69.14 Y71.98 E842.7764
G1 X145.18 Y148.02 E848.1414
G1 X145.74 Y148.02 E848.1694
G1 X69.70 Y71.98 E853.5344
G1 X70.27 Y71.98 E853.5629
G1 X146.31 Y148.02 E858.9279
G1 X146.87 Y148.02 E858.9559
G1 X70.83 Y71.98 E864.3209
G1 X71.40 Y71.98 E864.3494
G1 X147.44 Y148.02 E869.7144
G1 X148.00 Y148.02 E869.7424
G1 X71.96 Y71.98 E875.1074
G1 X72.53 Y71.98 E875.1359
G1 X148.57 Y148.02 E880.5009
G1 X149.13 Y148.02 E880.5289
G1 X73.10 Y71.98 E885.8936
G1 X73.66 Y71.98 E885.9215
G1 X149.70 Y148.02 E891.2866
G1 X150.27 Y148.02 E891.3150
G1 X74.23 Y71.98 E896.6801
G1 X74.79 Y71.98 E896.7080
G1 X150.83 Y148.02 E902.0731
G1 X151.40 Y148.02 E902.1015
G1 X75.36 Y71.98 E907.4666
G1 X75.92 Y71.98 E907.4945
G1 X151.96 Y148.02 E912.8596
G1 X152.53 Y148.02 E912.8880
G1 X76.49 Y71.98 E918.2531
G1 X77.05 Y71.98 E918.2810
G1 X153.09 Y148.02 E923.6461
G1 X153.66 Y148.02 E923.6745
G1 X77.62 Y71.98 E929.0396
G1 X78.19 Y71.98 E929.0680
G1 X154.23 Y148.02 E934.4330
G1 X154.79 Y148.02 E934.4610
G1 X78.75 Y71.98 E939.8260
G1 X79.32 Y71.98 E939.8545
G1 X155.36 Y148.02 E945.2195
G1 X155.92 Y148.02 E945.2475
G1 X79.88 Y71.98 E950.6125
G1 X80.45 Y71.98 E950.6410
G1 X156.49 Y148.02 E956.0060
G1 X157.05 Y148.02 E956.0340
G1 X81.01 Y71.98 E961.3990
G1 X81.58 Y71.98 E961.4275
G1 X157.62 Y148.02 E966.7925
G1 X158.19 Y148.02 E966.8210
G1 X82.15 Y71.98 E972.1860
G1 X82.71 Y71.98 E972.2140
G1 X158.75 Y148.02 E977.5790
G1 X159.32 Y148.02 E977.6075
G1 X83.28 Y71.98 E982.9725
G1 X83.84 Y71.98 E983.0005
G1 X159.88 Y148.02 E988.3655
G1 X160.45 Y148.02 E988.3940
G1 X84.41 Y71.98 E993.7590
G1 X84.97 Y71.98 E993.7870
G1 X161.01 Y148.02 E999.1520
G1 X161.58 Y148.02 E999.1805
G92 E0
G1 X85.54 Y71.98 E5.3650
G1 X86.11 Y71.98 E5.3935
G1 X162.15 Y148.02 E10.7585
G1 X162.71 Y148.02 E10.7864
G1 X86.67 Y71.98 E16.1515
G1 X87.24 Y71.98 E16.1799
G1 X163.28 Y148.02 E21.5449
G1 X163.84 Y148.02 E21.5729
G1 X87.80 Y71.98 E26.9379
G1 X88.37 Y71.98 E26.9664
G1 X164.41 Y148.02 E32.3314
G1 X164.97 Y148.02 E32.3593
G1 X88.93 Y71.98 E37.7244
G1 X89.50 Y71.98 E37.7528
G1 X165.54 Y148.02 E43.1178
G1 X166.11 Y148.02 E43.1463
G1 X90.07 Y71.98 E48.5113
G1 X90.63 Y71.98 E48.5392
G1 X166.67 Y148.02 E53.9043
G1 X167.24 Y148.02 E53.9327
G1 X91.20 Y71.98 E59.2977
G1 X91.76 Y71.98 E59.3257
G1 X167.80 Y148.02 E64.6907
G1 X168.37 Y148.02 E64.7191
G1 X92.33 Y71.98 E70.0842
G1 X92.89 Y71.98 E70.1121
G1 X168.93 Y148.02 E75.4771
G1 X169.50 Y148.02 E75.5056
G1 X93.46 Y71.98 E80.8706
G1 X94.03 Y71.98 E80.8991
G1 X170.07 Y148.02 E86.2641
G1 X170.63 Y148.02 E86.2920
G1 X94.59 Y71.98 E91.6570
G1 X95.16 Y71.98 E91.6855
G1 X171.20 Y148.02 E97.0505
G1 X171.76 Y148.02 E97.0785
G1 X95.72 Y71.98 E102.4435
G1 X96.29 Y71.98 E102.4719
G1 X172.33 Y148.02 E107.8370
G1 X172.89 Y148.02 E107.8649
G1 X96.85 Y71.98 E113.2299
G1 X97.42 Y71.98 E113.2584
G1 X173.46 Y148.02 E118.6234
G1 X174.03 Y148.02 E118.6518
